svgs/sharp-light/pipe-section.svg

<svg xmlns="http://www.w3.org/2000/svg" viewBox="0 0 640 512"><!--! Font Awesome Pro 6.6.0 by @fontawesome - https://fontawesome.com License - https://fontawesome.com/license (Commercial License) Copyright 2024 Fonticons, Inc. --><path d="M32 112l0-16L0 96l0 16 0 16 0 16 0 16L0 352l0 16 0 16 0 16 0 16 32 0 0-16 0-16 576 0 0 16 0 16 32 0 0-16 0-16 0-16 0-16 0-192 0-16 0-16 0-16 0-16-32 0 0 16 0 16-352 0L32 128l0-16zm0 48l224 0 352 0 0 192L32 352l0-192z"/></svg>

<svg xmlns="http://www.w3.org/2000/svg" viewBox="0 0 640 512"><!--! Font Awesome Pro 6.4.0 by @fontawesome - https://fontawesome.com License - https://fontawesome.com/license (Commercial License) Copyright 2023 Fonticons, Inc. --><path d="M32 112V96H0v16 16 16 16V352v16 16 16 16H32V400 384H608v16 16h32V400 384 368 352 160 144 128 112 96H608v16 16H256 32V112zm0 48H256 608V352H32V160z"/></svg>
